X:184
T: FELDEINWAERTS FLOG EIN VOEGELEIN
N: B0219
O: Europa, Mitteleuropa, Deutschland
R: Jahreszeiten - Lied, Herbst
M: 3/4
L: 1/16
K: G
D2D2EF | G4B4BAA2 | G4z2
A2B2c2 | d3ed2B2c2d2 | B4z2
D2G2B2 | d4e2d2c2B2 | A4z2
d2B2A2 | B2d2c2B2A2G2 | A4z2
D2G2B2 | d2e2d4c2d2 | B4z2

